!!!!SEGMENT: pl-wtm--2198-sp-10911_joteyko-tadeusz--nie-wierz-op-44-no-1.krn
!!!cenid: 19xx:123
!!!COM: Joteyko, Tadeusz
!!!COM-rismID: pe50046072
!!!CDT: 1872-1932
!!!CNT: Polish
!!!OTL: Nie wierz Op. 44 No. 1
!!!PDT: 1924
!!!AGN: Secular; Song
!!!YEC: Copyright 2022 Narodowy Instytut Fryderyka Chopina (https://polishscores.org)
!!!YEM: License CC-BY-4.0 (https://creativecommons.org/licenses/by/4.0)
!!!SMS-siglum: PL-Wtm
!!!SMS-shelfmark: 2198 śp 10911
!!!SMS-variant:
!!!SMS-altvar:
!!!SMS-shelfwork: W
!!!NIFC-rismSourceID: 1001166431
!!!NIFC-rismChildID: 1001166431
!!!NIFC-islandoraID: pl-wtm:74475
!!!URL-pdf-islandora: https://repozytorium.nifc.pl/islandora/object/pl-wtm%3A74475/datastream/PDF/view
!!!URL-scan: https://polish.musicsources.pl/pl/lokalizacje/galeria/druki-muzyczne/19212/2 @EN{Scan on Polish Music Sources Website} @PL{Skany w portalu Dziedzictwo Muzyki Polskiej w otwartym dostępie}
!!!IIIF:
!!!ONB-nifc:
!!!AIN: 1 canto 1 piano
!!!key: D-
**kern	**kern	**dynam	**kern	**text	**text
*part2	*part2	*part2	*part1	*part1	*part1
*staff3	*staff2	*staf2/3	*staff1	*staff1	*staff1
*group2	*group2	*	*group1	*	*
*IGacmp	*IGacmp	*	*IGsolo	*	*
*ICklav	*ICklav	*	*ICvox	*	*
*Ipiano	*Ipiano	*	*Icanto	*	*
*I"Piano.	*I"Piano.	*	*I"Chant.	*	*
*I'	*I'	*	*I'	*	*
*clefF4	*clefG2	*	*clefG2	*	*
*kcancel	*kcancel	*	*kcancel	*	*
*k[b-e-a-d-g-]	*k[b-e-a-d-g-]	*	*k[b-e-a-d-g-]	*	*
*D-:	*D-:	*	*D-:	*	*
*M4/4	*M4/4	*	*M4/4	*	*
*met(c)	*met(c)	*	*met(c)	*	*
*	*	*	*^	*	*
*	*	*	*	*cue	*	*
!!LO:TX:a:B:t=Largamente.
2r	4.a- 4.A-/	p	2r	4re	.	.
.	.	.	.	8re	.	.
.	8a- 8A-/	.	.	8a-\	.	Ne
*	*	*	*	*Xcue	*	*
*	*	*	*v	*v	*	*
=1	=1	=1	=1	=1	=1
*^	*	*	*	*	*
!	!	!LO:S:s=1:note:problem=note-level slur	!	!	!	!
!	!	!LO:S:s=2:note:problem=note-level slur	!	!	!	!
2F-X: 2AA-: 2DD-:/	2ryy	(>2a- (<2c-X [2A-/	.	4.a-/	Nie	crois
.	.	.	.	8a-/	wierz	ja-
!	!	!LO:S:s=1:note:problem=note-level slur	!	!	!	!
!	!LO:TX:t=P:problem:8r po półnucie	!LO:S:s=2:note:problem=note-level slur	!	!	!	!
2Fn 2AA- 2DDn/	8r	2b-) 2B-) 2A-/]	<[	4b-\	ni-	-mais,
.	4BB-\	.	.	.	.	.
.	.	.	.	8b-\	-gdy,	oh,
.	8BB-\	.	.	16r	.	.
.	.	.	.	16b-\	o	ne
=2	=2	=2	=2	=2	=2	=2
!	!	!LO:S:s=1:note:problem=note-level slur	!	!	!	!
!	!	!LO:S:s=2:note:problem=note-level slur	!	!	!	!
2F-X: 2AA-: 2DD-X:/	2ryy	[2a- (>2c-X (<2A-/	p	4.a-/	nie	crois
.	.	.	.	8a-/	wierz,	pas
!	!	!LO:S:s=1:note:problem=note-level slur	!	!	!	!
!	!	!LO:S:s=2:note:problem=note-level slur	!	!	!	!
2Dn 2EEn/	8BB-\	2b- 2a-] 2dn) 2B-/)	<[	8.b-\	choć-	mê-
.	4BB-\	.	.	.	.	.
.	.	.	.	16b-\	-by	-me
.	.	.	.	8b-\	ci	si
.	8BB-\	.	.	8b-\	mó-	l’on
*v	*v	*	*	*	*	*
!!LO:LB:g=original
=3	=3	=3	=3	=3	=3
*	*	*	*^	*	*
*	*	*	*	*cue	*	*
!	!LO:S:s=3:note:problem=note-level slur	!	!	!	!	!
!	!LO:S:s=2:note:problem=note-level slur	!	!	!	!	!
(<16EE-X/LL	(>2cc-X [2a- (<2e- (<2c-X/	.	4cc-X/	8cc-\	wio-	te
16AA-/	.	.	.	.	.	.
16C-X/	.	.	.	8cc-\	.	di-
16F/JJ	.	.	.	.	.	.
!LO:TUP:a	!	!	!	!	!	!
12E-\L	.	.	4cc-\	4ryy	-no,	-sait,
12F\	.	.	.	.	.	.
12A-\J	.	.	.	.	.	.
!	!LO:S:s=3:note:problem=note-level slur	!	!	!	!	!
!	!LO:S:s=2:note:problem=note-level slur	!	!	!	!	!
4A- 4F 4Dn\)	4b-) 4a-] 4dn) 4B-/)	>	4r	4ryy	.	.
4Gn 4En 4D-X\	4b- 4gn 4en 4B-/	]	4b-/	8b-\	że	que
.	.	.	.	8b-\	.	l’a-
=4	=4	=4	=4	=4	=4	=4
(4C 4CC/	(>4a- 4g-X 4e-X 4A-/	.	4.a-/	4a-\	mi-	-mour,
4D- 4DD-/	4a- 4f-X 4d- 4A-/	.	.	8a-\	.	le
.	.	.	8a-/	8a-\	-łość,	bon-
16GG-/LL	2g- 2d- 2B-/)	.	4g-/	4ryy	szczę-	-heur
16BB-/	.	.	.	.	.	.
16D-/	.	.	.	.	.	.
16E-/JJ	.	.	.	.	.	.
!LO:TUP:a	!	!	!	!	!	!
12D-\L	.	.	4g-/	8g-\	-ście,	et
12E-\	.	.	.	.	.	.
.	.	.	.	8g-\	.	la
12G-\J)	.	.	.	.	.	.
=5	=5	=5	=5	=5	=5	=5
*	*^	*	*	*	*	*
2F: 2AA-: 2CC-X:/	2a- 2A-/	(4e-\	.	4f/	2f\	wia-	foi
.	.	4dn\)	.	4f/	.	-ra,	.
(16BBB-/LL	4b- 4a- 4d-X 4B-/	2ryy	.	8.b-\	4ryy	to	soient
16FF/	.	.	.	.	.	.	.
16BB-/	.	.	.	.	.	.	.
16D-/JJ)	.	.	.	16b-/	.	są	de
!	!	!	!	!	!LO:TUP:b	!	!
(16EE-/LL	4b- 4g- 4e- 4B-/	.	.	8b-/	12b-\	dźwię-	vai-
16BB-/	.	.	.	.	.	.	.
.	.	.	.	.	12b-\	.	-nes
16D-/	.	.	.	8b-/	.	-ki	.
.	.	.	.	.	12b-\	.	pa-
16G-/JJ)	.	.	.	.	.	.	.
*	*v	*v	*	*	*	*	*
!!LO:LB:g=original
=6	=6	=6	=6	=6	=6	=6
!	!LO:S:s=1:note:problem=note-level slur	!	!	!	!	!
!	!LO:S:s=2:note:problem=note-level slur	!	!	!	!	!
(4AA- (4AAA-^>/	[4f (>4e- (<4c-X [4F^>/	.	4e-/	2ryy	mar-	ro-
!	!LO:S:s=1:note:problem=note-level slur	!	!	!	!	!
!	!LO:S:s=2:note:problem=note-level slur	!	!	!	!	!
4BB- 4BBB-/))	4f] 4dn) 4B-) 4F/]	.	4dn/	.	-ne.	-les.
!	!LO:S:s=3:note:problem=note-level slur	!	!	!	!	!
!	!LO:S:s=2:note:problem=note-level slur	!	!	!	!	!
!	!LO:SIC:v:s=[4e- (<4d- (<4B-- [4E-^>/	!	!	!	!	!
(4GG- (4GGG-^>/	[4e- (<4d (<4B-- [4E-^>/	.	2r	4re	.	.
!	!LO:S:s=3:note:problem=note-level slur	!	!	!	!	!
!	!LO:S:s=2:note:problem=note-level slur	!	!	!	!	!
!	!LO:TX:t=P:problem:- w nawiasie	!	!	!	!	!
4AA- 4AAA-/))	4e-] 4c-X) 4A-) 4E-/]	.	.	8re	.	.
.	.	.	.	8e-\	.	Ne
=7	=7	=7	=7	=7	=7	=7
!	!	!LO:S:s=3:note:problem=note-level slur	!	!	!	!
!	!	!LO:S:s=2:note:problem=note-level slur	!	!	!	!
(2AAn (2AAAn/	(>2e- (<2c-X (<2G- (<2E-/	.	4e-/	4e-\	Nie	crois
.	.	.	8.e-/	4e-\	wierz,	pas,
.	.	.	16e-/	.	że	.
=-	=-	=-	=-	=-	=-	=-
*k[]	*k[]	*	*k[]	*k[]	*	*
!	!LO:S:s=3:note:problem=note-level slur	!	!	!	!	!
!	!LO:S:s=2:note:problem=note-level slur	!	!	!	!	!
!	!LO:TX:t=P:problem:znaki w nawiasie	!	!LO:TX:t=P:problem:n w nawiasie	!	!	!
2GG#X 2GGG#X/))	8enL)) 8Bn) 8En/)	<	8en/	2ryy	ży-	que
.	(>8f#X 8c 8A/	.	8f#X/	.	-cie	la
.	8g#X 8d 8B/	.	8g#X/	.	tyl-	vie
!	!	!	!LO:TX:t=P:problem:n w nawiasie	!	!	!
.	8bJ 8fn 8d/	[	8bn\	.	-ko	soit
=8	=8	=8	=8	=8	=8	=8
*	*^	*	*	*	*	*
4AA 4AAA/	4cc#X 4e 4c#X/)	4ryy	<	8cc#X/	4cc#\	smu-	tri-
.	.	.	.	8cc#/	.	-tne	.
(<8.AL 8.E 8.C#X\	(>8.aL 8.e 8.c#/	4ryy	.	8.a/	4ryy	jest	ste
16GJk 16F#X 16D\	16bJk 16f 16d/	.	.	16b\	.	i	et
4A 4E 4C# 4AA\)	4cc# 4e 4c#/)	4ryy	.	4cc#\	2ryy	czar-	som-
4B: 4E#X: 4C#: 4GGn:\	8cc#L 8c#/	4e#X\	.	4cc#\	.	-ne,	-bre,
.	8cc#J 8c#/	.	.	.	.	.	.
*	*v	*v	*	*	*	*	*
!!LO:PB:g=original
=9	=9	=9	=9	=9	=9	=9
!	!	!	!LO:N:vis=4	!	!	!
4FF#X 4FFF#X/	4dd 4cc 4f#X 4d/	f	4.dd/	4dd\	że	que
4B 4G 4FnX\	4dd 4b 4g 4d/	.	.	8dd\	.	les
.	.	.	8dd/	8dd\	cier-	souf-
8c#XL 8G 8E\	8cc#XL 8g 8e/	<	8cc#X\L	2ryy	-pie-	-fran-
8dJ 8A 8F\	8ddJ 8a 8fn/	.	8dd\J	.	.	.
8EEL 8EEE/	8eeL 8b 8g 8e/	.	8ee\	.	-niem	-ces
8EE-XJ 8EEE-X/	8ffJ 8cc# 8a 8f/	[	8ff\	.	je-	seules
=10	=10	=10	=10	=10	=10	=10
*	*^	*	*	*	*	*
4DD 4DDD/	4.ff#X/	4dd 4a 4f#X\	ff	4ff#X\	4ryy	-dy-	ré-
4d 4A 4F#X 4D\	.	4dd 4a 4f#\	.	4dd\	4ryy	-nie	-gnent
.	8ff#/	.	.	.	.	.	.
4c 4A#X 4F# 4C\	4.ff#/	4ee 4a# 4f#\	.	8.ff#/	4ff#\	tchnie	dans
.	.	.	.	16ff#\	.	czło-	.
4c 4A# 4F# 4C\	.	4a# 4f#\	.	8ff#\	4ryy	-wie-	l’âme
.	8ff#/	.	.	8ff#\	.	-cze	hu-
*	*	*	*	*	*Xcue	*	*
*	*v	*v	*	*	*	*	*
*	*	*	*v	*v	*	*
=11	=11	=11	=11	=11	=11
4BB 4BBB/	4aa 4dd#X 4cc 4a\	.	4ff#X\	ło-	-mai-
4d#X 4A 4F#X\	8gg#XL 8dd# 8cc 8g#X\	.	4dd#X\	-no!	-ne!
.	[8ff#XJ [8dd# [8cc [8f#X\	.	.	.	.
4BB 4BBB/	8ff#]L 8dd#] 8cc] 8f#\]	.	4r	.	.
.	(8ee#X 8dd# 8cc 8e#X\	.	.	.	.
4d# 4A 4F#\	8ff# 8dd# 8cc 8f#\	.	8dd#\	Nie	Ne
.	8ff##XJ 8dd# 8cc 8f##X\)	.	8dd#\	wierz	crois
!!LO:LB:g=original
=12	=12	=12	=12	=12	=12
4AA 4AAA/	4gg#X 4cc#X 4g#X\	.	4cc#X\	choć-	pas
4c#X 4G#X 4E\	8ff#XL 8cc# 8f#X\	.	8.cc#\	-by	aux
.	[8eeJ [<8cc# [8e\	.	.	.	.
.	.	.	16cc#\	sto	men-
4AA 4AAA/	8ee]L 8cc#] 8e/]	.	(8cc#\	ra-	-son-
.	(8dd#X 8cc# 8d#X/	>	8d#X/)	.	-ges
4c# 4G# 4E\	8ee 8cc# 8e/	.	8e/	-zy	ré-
.	8ff#J 8cc# 8f#/)	]	8f#X/	mó-	-pé-
=13	=13	=13	=13	=13	=13
*^	*^	*	*	*	*
4BB-X 4BBB-X/	4ryy	4gg 4dd 4g\	4ryy	.	2g/	-wi-	-tés
[4E-X/	(4GG\	8f/L	(4B-X (4G\	.	.	.	.
.	.	[8e-X/J	.	.	.	.	.
8E-/L]	4FF\)	8e-/L]	4A-X\))	.	4.a-X/	-li	mil-
(8D/	.	(8d/	.	.	.	.	.
8E-/	4r	8e-/	4r	.	.	.	.
8F/J)	.	8f/J)	.	.	8a-/	bluź-	-le
=14	=14	=14	=14	=14	=14	=14	=14
*	*	*	*	*	*^	*	*
*	*	*	*	*	*	*cue	*	*
4AA 4AAA/	4ryy	4f#X 4c#X 4F#X/	4ryy	p	4an/	2a\	-nier-	fois,
[4D/	(4FF#X\	8enX/L	(4A\	.	4a/	.	-ce,	.
.	.	[8d/J	.	.	.	.	.	.
8D/L]	4EE\)	8d/L]	4B-X\)	>	2r	2ryy	.	.
!	!	!LO:TX:t=P:problem:# w nawiasie	!	!	!	!	!	!
(8C#X/	.	(8c#X/	.	.	.	.	.	.
8D/	4r	8d/	4r	.	.	.	.	.
8E/J)	.	8e/J)	.	]	.	.	.	.
*v	*v	*	*	*	*v	*v	*	*
*	*v	*v	*	*	*	*
!!LO:LB:g=original
=15||	=15||	=15||	=15||	=15||	=15||
*k[b-e-a-d-g-]	*k[b-e-a-d-g-]	*	*k[b-e-a-d-g-]	*	*
*	*^	*	*^	*	*
2.AA- 2.AAA-/	(>4f 4c 4G-/	4ryy	.	4cc\	4ryy	nie	mê-
.	8a-L 8B-/	4c\	.	4cc\	4ryy	wierz,	-me,
.	8g-J 8B--/	.	.	.	.	.	.
.	4f 4c 4A-/	2ryy	.	4cc/	8cc\	choć-	si
.	.	.	.	.	8cc\	.	le
4AA- 4AAA-/	4e- 4c-X 4F/	.	.	8.cc-X\	4ryy	-by	doute
.	.	.	.	16cc-\	.	twe	cru-
=16	=16	=16	=16	=16	=16	=16	=16
*^	*	*	*	*	*	*	*
4GG- 4GGG-/	4ryy	4e- 4c-X 4G-/)	2ryy	.	4cc-X\	4ryy	wła-	-el
(8F-X/L	2.GG-\	4d- 4B-- 4G-/	.	.	4b--/	8b--\	-sne	dans
8E--/J	.	.	.	.	.	8b--\	.	ton
8D-/L	.	4d- 4B-- 4G-/	4ryy	.	8.b--/	4b--\	tak	coeur
8C-X/	.	.	.	.	.	.	.	.
.	.	.	.	.	16b--\	.	mó-	.
8D-/	.	8d-L/	4B-- 4G-\	.	8b--\	4ryy	-wi-	s’in-
8Dn/J	.	8dn/J	.	.	8b--\	.	-ło	-si-
*	*	*v	*v	*	*	*	*	*
*	*	*	*	*v	*v	*	*
=17	=17	=17	=17	=17	=17	=17
4En/)	[1GGn	4en 4cn 4Gn/	.	4gn/	ser-	-nu-
(8Dn/L	.	4e 4c 4G/	.	4g/	-ce,	-e,
8C/J	.	.	.	.	.	.
8BBn/L	.	4e 4c 4G/	.	4r	.	.
8AAn/	.	.	.	.	.	.
8BB/	.	4e 4c 4G/	.	8.en/	choć-	si
8C/J	.	.	.	.	.	.
.	.	.	.	16e/	-by	les
!!LO:LB:g=original
=18	=18	=18	=18	=18	=18	=18
*	*	*	*	*^	*	*
8F/L	1GG]	4gn 4en 4c/	.	8gn/	4ryy	go-	lar-
8En/	.	.	.	8g/	.	-rycz	-mes,
!LO:N:acc=n#	!	!	!LO:HP:b=2	!	!	!	!
8D#X/	.	4g 4e 4c/	<	4g/	8g\	łez	l’a-
8E/J	.	.	.	.	8g\	.	-mer-
8An/L	.	4cc 4g 4e 4c/	.	4cc\	2ryy	z o-	-tume
8Gn/	.	.	.	.	.	.	.
8F#X/	.	4cc 4g 4e 4c/	.	8.cc\	.	-czu	t’ac-
8G/J)	.	.	[	.	.	.	.
.	.	.	.	16cc\	.	pły-	-ca-
*	*	*	*	*	*Xcue	*	*
*v	*v	*	*	*v	*v	*	*
=19	=19	=19	=19	=19	=19
*	*^	*	*	*	*
4A-X 4E-X 4AA-X\	4cc 4e-X 4c/	4ryy	.	4cc\	-ną-	-blaient
4A- 4E- 4AA-\	8.b-/L	4e- 4c\	<	8.b-\	-cych	sous
.	16a-/Jk	.	.	16a-/	mó-	leur
4A- 4E- 4GG-X/	4cc 4a- 4e- 4c/	2ryy	.	(4cc\	-wi-	poids,
4A- 4E- 4GG-/	8dd-L 8b- 8a- 8d-/	.	.	8dd-\)	.	si
.	8ee-J 8cc 8a- 8e-/	.	[	8ee-\	-ła,	ton
=20	=20	=20	=20	=20	=20	=20
*^	*	*	*	*^	*	*
4An 4C 4FF\	4ryy	4ff 4dd- 4f\	4ryy	f	(4ff\	4ryy	choć-	â-
8e-L 8c/	4F\	4ff 4f/	8cc\L	.	8cc\)	4ryy	.	.
8d-J 8B-/	.	.	8b-\J	.	8b-\	.	-by	-me
*	*	*	*	*	*	*cue	*	*
4F-X 4FF-X/	2ryy	4gg- 4dd- 4b- 4g-\	4ryy	.	4dd-/	4.dd-\	pierś	op-
4d- 4B- 4F-\	.	8.aa-L 8.a-/	4dd- 4b-\	.	8.dd-/	.	twa	.
.	.	.	.	.	.	8dd-\	.	-prés-
.	.	16gg-Jk 16g-/	.	.	16dd-/	.	spa-	.
*v	*v	*	*	*	*	*	*	*
!!LO:PB:g=original
=21	=21	=21	=21	=21	=21	=21	=21
4E- 4EE-/	4aa- 4ee- 4cc-X 4a-\	4ryy	.	4ee-/	2ee-\	-lo-	sée
4e- 4c-X 4E-\	8.bb-L 8.b-/	4ee-\	<	4ee-/	.	-na	.
.	16aa-Jk 16a-/	.	.	.	.	.	.
4Dn 4DDn/	4bb- 4ff 4ddn 4b-\	4ryy	.	8ff\	2ryy	strasz-	de
.	.	.	.	8ff\	.	-nym	dé-
4dn 4B- 4D\	4ff 4dd\	8.ccc-XL 8.cc-X/	.	8ff\	.	du-	-sirs
.	.	.	.	8ff\	.	-cha	la-
.	.	16bb-Jk 16b-/	[[	.	.	.	.
*	*v	*v	*	*	*	*	*
=22	=22	=22	=22	=22	=22	=22
*^	*	*	*	*	*	*
4D-X 4DD-X/	4ryy	4bb- 4gg- 4ee- 4b-\	f	(4gg-\	4ryy	gło-	-tents,
8.c-/L	4G- 4E- 4D-\	8.ccc-XL 8.gg- 8.ee- 8.cc-X\	<	4ee-\)	4ryy	-dem,	.
16B-/Jk	.	16bb-Jk 16gg- 16ee- 16b-\	.	.	.	.	.
(8An/L	4G- 4E- 4D-\	(8aanL 8gg- 8ee- 8an\	.	8.ee-\	8.rbb	a	.
8B-/J	.	8bb-J 8gg- 8ee- 8b-\	[	.	.	.	.
.	.	.	.	16ee-\	16ryy	star-	trom-
*clefG2	*	*	*	*	*	*	*
8b- 8g- 8e- 8d-/)	4ryy	8eee- 8bb- 8gg- 8ee-\LL	ff	12ee-\	4ryy	-ga-	-pée,
.	.	.	.	12ee-\	.	-na	e-
8r	.	16r	.	.	.	.	.
.	.	.	.	12ee-\	.	roz-	-pui-
.	.	16gg- 16g-\JJ	.	.	.	.	.
*clefF4	*	*	*	*	*	*	*
=23	=23	=23	=23	=23	=23	=23	=23
4AA- 4AAA-/	4ryy	4gg- 4cc-X 4g-\	>	4gg-/	4ryy	-pa-	-sée,
4e- 4c-X 4F\	4ryy	4ff 4cc- 4f\)	]	8.ff/	4ff\	-czą,	s’af-
.	.	.	.	16ff/	.	prze-	.
(8Dn/L	4GG-\	4ff 4b- 4f\	.	4b-/	8b-\	-bi-	-fais-
8E-/J	.	.	.	.	8b-\	.	-se
!	!	!	!	!	!LO:TUP:b	!	!
8B-/L	4GG-\	4ff 4b- 4f\	.	8.b-/	12b-\	-ta	de
.	.	.	.	.	12b-\	.	dé-
16r	.	.	.	.	.	.	.
.	.	.	.	.	12b-\	.	-ses-
16D-X/Jk	.	.	.	16b-/	.	za-	.
*	*	*	*	*	*Xcue	*	*
*	*	*	*	*v	*v	*	*
!!LO:LB:g=original
=24	=24	=24	=24	=24	=24	=24
*	*	*^	*	*	*	*
4D- 4FF/)	4ryy	(8aanL 8an/	4ee-\	<	(4ee-\	-wo-	-poir..._
.	.	8bb-J 8b-/	.	.	.	.	.
4A-: 4C: 4FF:/	4ryy	8fffL 8aa-X 8ff\	2.ryy	[	4a-/)	-dem...	.
.	.	16r	.	.	.	.	.
.	.	16aa-Jk 16cc 16a-X\	.	.	.	.	.
(16C/LL	2EE-\	4aa- 4cc 4a-\	.	>	4r	.	.
16E-/J	.	.	.	.	.	.	.
24G-/L	.	.	.	.	.	.	.
24A-/	.	.	.	.	.	.	.
24c/JJ	.	.	.	.	.	.	.
16e-/LL	.	4gg- 4cc 4g-\)	.	.	8r	.	.
16c/	.	.	.	.	.	.	.
16A-/	.	.	.	.	8a-/	ty	n’y
16G-/JJ)	.	.	.	.	.	.	.
*	*	*v	*v	*	*	*	*
=25	=25	=25	=25	=25	=25	=25
(4C/	2DD-\	(4gg- [4a- ((4g-\	>	4a-/	nie	crois
4D-/)	.	4ff 4a-] 4f\)))	]]	4dd-\	wierz,	pas,
(4Bn 4G#X 4Dn~\	2ryy	(>4een 4bn 4en~>/	pp	4r	.	.
4B 4G# 4D~\)	.	4ee 4b 4e~>/)	.	8.een\	choć-	mê-
.	.	.	.	16ee\	-by	-me
*v	*v	*	*	*	*	*
=26	=26	=26	=26	=26	=26
!	!LO:TX:a:i:t=tranquillo	!	!	!	!
(4c 4A-X 4E-X~\	(4ee-X 4cc 4e-X~\	.	4ee-X\	na-	si
4c 4A- 4E-~\)	4ee- 4cc 4e-~\)	.	4ee-\	-wet	c’é-
(4c 4An 4F#X~\	(>4ddn 4an 4dn~>/	.	4ddn\	to	-tait
4c 4A 4F#~\)	4dd 4a 4d~>/)	.	4dd\	i	la
!!LO:LB:g=original
=27	=27	=27	=27	=27	=27
[4c-X 4Fn\	(>4dd-X 4a-X 4d-X~>/	.	(2dd-X\	praw-	vé-
4c-] 4F\	4dd- 4a- 4d-~>/)	.	.	.	.
4B- 4En\	(>4cc 4a- 4c~>/	.	4cc\)	.	.
(16EEn/LL	4cc 4gn 4c~>/)	.	4cc\	-da	-ri-
16BB-/	.	.	.	.	.
16C/	.	.	.	.	.
16Gn/JJ)	.	.	.	.	.
=28	=28	=28	=28	=28	=28
*	*	*	*^	*	*
*	*	*	*	*cue	*	*
4An 4D#X\	(>4bn 4gn 4Bn~>/	.	4cc-X/	2cc-\	by-	-té...
(16DD#X/LL	4b 4f#X 4B~>/)	.	4cc-/	.	-ła..	.
16AAn/	.	.	.	.	.	.
16BBn/	.	.	.	.	.	.
16F#X/JJ)	.	.	.	.	.	.
4A-X 4Dn\	(>4b-X 4g-X 4B-X~>/	>	2r	2ryy	.	.
(16DDn/LL	4b- 4fn 4B-~>/)	.	.	.	.	.
16AA-X/	.	.	.	.	.	.
16BB-X/	.	.	.	.	.	.
16Fn/JJ)	.	]]	.	.	.	.
*	*	*	*	*Xcue	*	*
*	*	*	*v	*v	*	*
=29	=29	=29	=29	=29	=29
(4G- 4E-~\	(>4b- 4e- 4B-~>/	ppp	1r	.	.
4G- 4E- 4D-~\)	4b- 4e- 4B-~>/)	.	.	.	.
(4G- 4E- 4C-X~\	(>4cc-X 4e- 4c-X~>/	<	.	.	.
4G- 4E- 4C- 4BB--~\)	4cc- 4e- 4c-~>/)	[	.	.	.
!!LO:LB:g=original
=30	=30	=30	=30	=30	=30
4En: 4BBn: 4GG#X:/	4een: 4bn: 4g#X: 4en:/	<	4r	.	.
4E: 4C#X: 4AAn: 4GGn:/	4ee: 4cc#X: 4an: 4e:/	.	4een\	Ty	N’y
(16AA-X\LL	[2ff: [2dd-X: [2a-X: [2f:\	[ f	2ff\	nie	crois
16D-X\J	.	.	.	.	.
*Xtuplet	*	*	*	*	*
24F\L	.	.	.	.	.
24A-X\	.	.	.	.	.
24B-X\JJ	.	.	.	.	.
16d-X\LL	.	.	.	.	.
16f\	.	.	.	.	.
16d-\	.	.	.	.	.
16B-\JJ	.	.	.	.	.
=31	=31	=31	=31	=31	=31
*tuplet	*	*	*	*	*
12A-\L	1ff] 1dd-] 1a-] 1f]	.	[1dd-	wierz!_	pas!_
12F\	.	.	.	.	.
12D-\J	.	.	.	.	.
12BB-/L	.	.	.	.	.
12AA-/	.	>	.	.	.
12FF/J	.	.	.	.	.
4DD-/)	.	.	.	.	.
4r	.	]]	.	.	.
=32	=32	=32	=32	=32	=32
1DD- 1DDD-;	1ff 1dd- 1a- 1f;	pp	1dd-;]	.	.
==	==	==	==	==	==
*-	*-	*-	*-	*-	*-
!!!system-decoration: g1{(g2)}
!!!RDF**kern: i = editorial accidental
!!!RDF**kern: > = above
!!!RDF**kern: < = below
!!!RDF**kern: N = linked
!!!RDF**dynam: > = "dim.", fontstyle= "italic"
!!!ENC: Anastazja Marusiak
!!!EED: Katarzyna Serwa
!!!END: 2023-10-01
!!!EEV: 2023-10-12
